!!!SOCIAL_FUNCTION:	game songs
!!!PDT:	1943
!!!OTL: No_65_Slahal_Game_Song_(g).krn
!!!REG: British Columbia
**kern
*staff1
=1-
*clefF4
*k[f#c#g#d#a#]
*M2/4
[4G#\
16G#\LL]
16F#\
16G#\
16G#\JJ
=2
4F#\
12G#\L
12F#\
12D#\J
=3
[4G#\
16G#\LL]
16F#\
16G#\
16G#\JJ
=4
4.F#\
8r
=5
8.G#\L
16G#\Jk
12G#\L
12F#\
12D#\J
=6
4C#/
12D#/L
12C#/
12BB/J
=7
4C#/
12D#/L
12C#/
12BB/J
=8
4BB/
4r
=9
8.C#/L
16BB/Jk
8.BB/L
16BB/Jk
=10
8.BB/L
16BB/Jk
8.BB/L
16C#/Jk
=11
[4D#\
16D#\LL]
16C#\
16D#\
16D#\JJ
=12
4.C#/
8r
=13
12D#\L
12D#\
12C#\J
16D#/LL
16C#/
16BB/
16BB/JJ
=14
4.BB/
8GG#/
=15
4.BB/
16BB/LL
16BB/JJ
=16||
*M3/4
4BB/
4r
8.BB/L
16BB/Jk
=17||
*M2/4
[4G#\
16G#\LL]
16F#\
16G#\
16G#\JJ
=18
4.F#\
8D#\
=19
[4G#\
16G#\LL]
16F#\
16G#\
16G#\JJ
=20
4.F#\
8r
=21
8.G#\L
16G#\Jk
12G#\L
12F#\
12D#\J
=22
4C#/
12D#/L
12C#/
12BB/J
=23
4C#/
12D#/L
12C#/
12BB/J
=24
4.BB/
8r
=25
8.C#/L
16BB/Jk
8BB/L
16BB/L
16BB/JJ
=26
4BB/
8.C#/L
16D#/Jk
=27
[4D#\
16D#\LL]
16C#\
16D#\
16D#\JJ
=28
4C#/
4r
=29
8.D#/L
16C#/Jk
16D#/LL
16C#/
16BB/
16BB/JJ
=30
4.BB/
8GG#/
=31
2BB/
==
*-
